!! 00000] TT[WS
!!!OTL: Zai liushu
!!!ARE: Asia, China, Shanxi Hequ
!! Ethnic Group: Han
!! WII, 80 (1)
!!!SCT: J0518
!!!YEM: Copyright 1995, estate of Helmut Schaffrath.
**kern
*ICvox
*Ivox
*M2/4
*k[b-]
*F:
{8cc
8cc
8a
8cc
=1
8ff
8ff
8ee
8gg
=2
8ff
8ff
8dd
8ff
=3
2cc}
=4
{8cc
16cc
16b-
8g
8b-
=5
4cc
8dd
8ff
=6
2cc}
=7
{16g
16g
16g
16g
8cc
8r
=8
16g
16g
16g
16g
8c
8r
=9
8.cc
16ff
8dd
8cc
=10
8cc
8d
4f}
=11
{8g
16g
16g
8f
8d
=12
4c
8d
8f
=13
2c}
==
!!!AGN: Xiaodiao. Qingge, Sichun
!!!ONB: ESAC (Essen Associative Code) Database: CHINA
!!!AMT: simple duple
!!!AIN: vox
!!!EED: Helmut Schaffrath
!!!EEV: 1.0
*-
